X: 12859
T: Fermanagh, The
R: strathspey
M: 4/4
K: Dmajor
dB|:A2 FD A>ddB|A2FD EFGB|{B}A2 FA {B}A2FA|BGEG F>DD>B:|
dAFA f3 e|dAFA Beec|dAFA f3 A|G>FEF GAB>c|
dAFA f3e|dAFA Bddc|d2 c>d B>c A2|(3Bcd (3edc d4||

